Sources/FrostedUI/Resources/Icons.xcassets/stats20.imageset/stats-20.svg

<svg width="20" height="20" viewBox="0 0 20 20" fill="none" xmlns="http://www.w3.org/2000/svg" data-fui-icon="true">
  <path
    d="M1.75 2.21875C2.16421 2.21875 2.5 2.55454 2.5 2.96875V15.0625C2.5 15.8564 3.14359 16.5 3.9375 16.5H18.2812C18.6955 16.5 19.0312 16.8358 19.0312 17.25C19.0312 17.6642 18.6955 18 18.2812 18H3.9375C2.31516 18 1 16.6848 1 15.0625V2.96875C1 2.55454 1.33579 2.21875 1.75 2.21875ZM16.25 6C16.6642 6 17 6.33579 17 6.75V9.75C17 10.1642 16.6642 10.5 16.25 10.5C15.8358 10.5 15.5 10.1642 15.5 9.75V8.56055L11.4678 12.5928C11.1749 12.8857 10.7001 12.8857 10.4072 12.5928L8.125 10.3105L4.84277 13.5928C4.54988 13.8857 4.07512 13.8857 3.78223 13.5928C3.48933 13.2999 3.48933 12.8251 3.78223 12.5322L7.59473 8.71973L7.65137 8.66797C7.94595 8.42766 8.38067 8.44512 8.65527 8.71973L10.9375 11.002L14.4395 7.5H13.25C12.8358 7.5 12.5 7.16421 12.5 6.75C12.5 6.33579 12.8358 6 13.25 6H16.25Z"
    fill="currentColor"
  />
</svg>

<svg xmlns="http://www.w3.org/2000/svg" width="20" height="20" fill="none" data-fui-icon="true" viewBox="0 0 20 20"><path fill="currentColor" d="M1.75 2.219a.75.75 0 0 1 .75.75v12.094c0 .793.644 1.437 1.438 1.437H18.28a.75.75 0 1 1 0 1.5H3.938A2.94 2.94 0 0 1 1 15.063V2.969a.75.75 0 0 1 .75-.75M16.25 6a.75.75 0 0 1 .75.75v3a.75.75 0 0 1-1.5 0V8.56l-4.032 4.033a.75.75 0 0 1-1.06 0L8.124 10.31l-3.282 3.283a.75.75 0 1 1-1.06-1.06L7.594 8.72l.056-.052a.75.75 0 0 1 1.004.052l2.283 2.282L14.44 7.5h-1.19a.75.75 0 0 1 0-1.5z"/></svg>
